icons/workplaces/interactive-avenues.svg

<svg height="84" viewBox="0 0 84 84" width="84" xmlns="http://www.w3.org/2000/svg" xmlns:xlink="http://www.w3.org/1999/xlink"><clipPath id="a"><path d="m0 0h84v84h-84z"/></clipPath><g clip-path="url(#a)"><path d="m0 0h84v84h-84z" fill="#fff" transform="translate(.001 .096)"/><path d="m47 46h-17.139v-24.977h-.3c-.057-.182-.124-.364-.2-.541a6.453 6.453 0 0 0 -1.361-2.056 6.334 6.334 0 0 0 -2.022-1.386 6.285 6.285 0 0 0 -4.952 0 6.336 6.336 0 0 0 -2.026 1.386 6.455 6.455 0 0 0 -1.363 2.056 6.592 6.592 0 0 0 0 5.036 6.458 6.458 0 0 0 1.363 2.056 6.339 6.339 0 0 0 2.022 1.386 6.285 6.285 0 0 0 4.952 0 6.334 6.334 0 0 0 1.058-.58v17.361a24.259 24.259 0 0 1 -8.27-.209 23.6 23.6 0 0 1 -11.879-6.269 23.289 23.289 0 0 1 -2.87-3.4 22.866 22.866 0 0 1 -2.167-3.907 22.585 22.585 0 0 1 0-17.905 22.866 22.866 0 0 1 2.167-3.911 23.289 23.289 0 0 1 2.87-3.4 23.624 23.624 0 0 1 11.881-6.273 24.239 24.239 0 0 1 9.472 0 23.6 23.6 0 0 1 11.881 6.27 23.289 23.289 0 0 1 2.87 3.4 22.866 22.866 0 0 1 2.167 3.907 22.448 22.448 0 0 1 1.761 6.976h.085z" fill="#ff4e00" transform="translate(12 30)"/><path d="m1.572 68v-45.333h16.943v45.333zm27.948-20.365a5.241 5.241 0 1 1 5.24 5.312 5.277 5.277 0 0 1 -5.24-5.312zm-23.386-28.071a10.011 10.011 0 0 1 -1.706-.939 10.255 10.255 0 0 1 -1.486-15.643 10.153 10.153 0 0 1 1.486-1.243 10.011 10.011 0 0 1 1.706-.939 9.95 9.95 0 0 1 7.819 0 10.011 10.011 0 0 1 1.706.939 10.255 10.255 0 0 1 1.486 15.643 10.152 10.152 0 0 1 -1.486 1.243 10.011 10.011 0 0 1 -1.706.939 9.95 9.95 0 0 1 -7.819 0zm3.879-12.594a5.218 5.218 0 0 0 -1.666 1.138 5.356 5.356 0 0 0 0 7.513 5.218 5.218 0 0 0 1.666 1.138 5.191 5.191 0 0 0 4.079 0 5.217 5.217 0 0 0 1.666-1.138 5.356 5.356 0 0 0 0-7.513 5.217 5.217 0 0 0 -1.666-1.138 5.191 5.191 0 0 0 -4.079 0z" fill="#243e92" transform="translate(5 8)"/></g></svg>

<svg xmlns="http://www.w3.org/2000/svg" xmlns:xlink="http://www.w3.org/1999/xlink" width="84" height="84" viewBox="0 0 84 84"><defs><style>.a{clip-path:url(#b);}.b{fill:#fff;}.c{fill:#ff4e00;}.d{fill:#243e92;}</style><clipPath id="b"><rect width="84" height="84"/></clipPath></defs><g id="a" class="a"><rect class="b" width="84" height="84" transform="translate(0.001 0.096)"/><g transform="translate(-973 474.178)"><path class="c" d="M47,46H29.861V21.023h-.3c-.057-.182-.124-.364-.2-.541A6.453,6.453,0,0,0,28,18.426a6.334,6.334,0,0,0-2.022-1.386,6.285,6.285,0,0,0-4.952,0A6.336,6.336,0,0,0,19,18.426a6.455,6.455,0,0,0-1.363,2.056,6.592,6.592,0,0,0,0,5.036A6.458,6.458,0,0,0,19,27.574a6.339,6.339,0,0,0,2.022,1.386,6.285,6.285,0,0,0,4.952,0,6.334,6.334,0,0,0,1.058-.58V45.741a24.259,24.259,0,0,1-8.27-.209A23.6,23.6,0,0,1,6.883,39.263a23.289,23.289,0,0,1-2.87-3.4,22.866,22.866,0,0,1-2.167-3.907,22.585,22.585,0,0,1,0-17.905A22.866,22.866,0,0,1,4.013,10.14a23.289,23.289,0,0,1,2.87-3.4A23.624,23.624,0,0,1,18.764.467a24.239,24.239,0,0,1,9.472,0A23.6,23.6,0,0,1,40.117,6.737a23.289,23.289,0,0,1,2.87,3.4,22.866,22.866,0,0,1,2.167,3.907,22.448,22.448,0,0,1,1.761,6.976H47V46Z" transform="translate(985 -444.178)"/><path class="d" d="M1.572,68V22.667H18.515V68ZM29.52,47.635a5.241,5.241,0,1,1,5.24,5.312A5.277,5.277,0,0,1,29.52,47.635ZM6.134,19.564a10.011,10.011,0,0,1-1.706-.939A10.255,10.255,0,0,1,2.942,2.982,10.153,10.153,0,0,1,4.428,1.739,10.011,10.011,0,0,1,6.134.8a9.95,9.95,0,0,1,7.819,0,10.011,10.011,0,0,1,1.706.939,10.255,10.255,0,0,1,1.486,15.643,10.152,10.152,0,0,1-1.486,1.243,10.011,10.011,0,0,1-1.706.939,9.95,9.95,0,0,1-7.819,0ZM10.013,6.97A5.218,5.218,0,0,0,8.347,8.108a5.356,5.356,0,0,0,0,7.513,5.218,5.218,0,0,0,1.666,1.138,5.191,5.191,0,0,0,4.079,0,5.217,5.217,0,0,0,1.666-1.138,5.356,5.356,0,0,0,0-7.513A5.217,5.217,0,0,0,14.092,6.97a5.191,5.191,0,0,0-4.079,0Z" transform="translate(978 -466.178)"/></g></g></svg>
